assets/mail.fill.svg

<svg width="15" height="11" viewBox="0 0 15 11" fill="none" xmlns="http://www.w3.org/2000/svg">
<g clip-path="url(#clip0_42_427)">
<path d="M2.73159 3.47742C2.52649 3.47742 2.37266 3.31427 2.37266 3.11383C2.37266 2.91339 2.52649 2.7549 2.73159 2.7549H6.71712C6.91755 2.7549 7.07602 2.91339 7.07602 3.11383C7.07602 3.31427 6.91755 3.47742 6.71712 3.47742H2.73159ZM2.73159 5.03434C2.52649 5.03434 2.37266 4.87582 2.37266 4.6754C2.37266 4.4703 2.52649 4.30715 2.73159 4.30715H5.64962C5.8501 4.30715 6.01325 4.4703 6.01325 4.6754C6.01325 4.87582 5.8501 5.03434 5.64962 5.03434H2.73159ZM10.3111 5.27205C9.51393 5.27205 8.87069 4.62879 8.87069 3.83168C8.87069 3.02992 9.51393 2.38665 10.3111 2.38665C11.1035 2.38665 11.7468 3.02992 11.7468 3.83168C11.7468 4.62879 11.1035 5.27205 10.3111 5.27205ZM1.81329 10.959H12.3061C13.5134 10.959 14.1241 10.3484 14.1241 9.16434V1.79931C14.1241 0.610647 13.5134 0 12.3061 0H1.81329C0.610647 0 0 0.605984 0 1.79931V9.16434C0 10.3577 0.610647 10.959 1.81329 10.959Z" fill="#A635FF" fill-opacity="0.85"/>
</g>
<defs>
<clipPath id="clip0_42_427">
<rect width="14.2966" height="10.959" fill="white"/>
</clipPath>
</defs>
</svg>

<svg xmlns="http://www.w3.org/2000/svg" width="15" height="11" fill="none"><g clip-path="url(#a)"><path fill="#A635FF" fill-opacity=".85" d="M2.732 3.477a.357.357 0 0 1-.36-.363c0-.2.154-.36.36-.36h3.985c.2 0 .359.16.359.36a.36.36 0 0 1-.359.363zm0 1.557a.353.353 0 0 1-.36-.359c0-.205.154-.368.36-.368H5.65c.2 0 .363.163.363.368a.36.36 0 0 1-.363.36zm7.58.238a1.44 1.44 0 0 1-1.441-1.44 1.438 1.438 0 1 1 2.876 0c0 .797-.643 1.44-1.436 1.44M1.812 10.96h10.493c1.207 0 1.818-.61 1.818-1.795V1.8C14.124.611 13.514 0 12.306 0H1.813C.611 0 0 .606 0 1.8v7.364c0 1.194.61 1.795 1.813 1.795"/></g><defs><clipPath id="a"><path fill="#fff" d="M0 0h14.297v10.959H0z"/></clipPath></defs></svg>
